svgs/duotone/calendar-week.svg

<svg xmlns="http://www.w3.org/2000/svg" viewBox="0 0 448 512"><!--! Font Awesome Pro 6.4.2 by @fontawesome - https://fontawesome.com License - https://fontawesome.com/license (Commercial License) Copyright 2023 Fonticons, Inc. --><defs><style>.fa-secondary{opacity:.4}</style></defs><path class="fa-primary" d="M96 32c0-17.7 14.3-32 32-32s32 14.3 32 32V64H288V32c0-17.7 14.3-32 32-32s32 14.3 32 32V64h48c26.5 0 48 21.5 48 48v80H0V112C0 85.5 21.5 64 48 64H96V32z"/><path class="fa-secondary" d="M448 192H0V464c0 26.5 21.5 48 48 48H400c26.5 0 48-21.5 48-48V192zM80 256H368c8.8 0 16 7.2 16 16v64c0 8.8-7.2 16-16 16H80c-8.8 0-16-7.2-16-16V272c0-8.8 7.2-16 16-16z"/></svg>

<svg xmlns="http://www.w3.org/2000/svg" viewBox="0 0 448 512"><defs><style>.fa-secondary{opacity:.4}</style></defs><path d="M0 192v272a48 48 0 0 0 48 48h352a48 48 0 0 0 48-48V192zm384 144a16 16 0 0 1-16 16H80a16 16 0 0 1-16-16v-64a16 16 0 0 1 16-16h288a16 16 0 0 1 16 16zm-80-208h32a16 16 0 0 0 16-16V16a16 16 0 0 0-16-16h-32a16 16 0 0 0-16 16v96a16 16 0 0 0 16 16zm-192 0h32a16 16 0 0 0 16-16V16a16 16 0 0 0-16-16h-32a16 16 0 0 0-16 16v96a16 16 0 0 0 16 16z" class="fa-secondary"/><path d="M448 112v80H0v-80a48 48 0 0 1 48-48h48v48a16 16 0 0 0 16 16h32a16 16 0 0 0 16-16V64h128v48a16 16 0 0 0 16 16h32a16 16 0 0 0 16-16V64h48a48 48 0 0 1 48 48z" class="fa-primary"/></svg>
